static/assets/img/icons/theme/electric/washer.svg

<svg height="24" viewBox="0 0 24 24" width="24" xmlns="http://www.w3.org/2000/svg"><g fill="none" fill-rule="evenodd"><path d="m0 0h24v24h-24z" opacity="0"/><g fill="#000"><path d="m6 4c-.55228475 0-1 .44771525-1 1v3h14v-3c0-.55228475-.4477153-1-1-1zm0-2h12c1.6568542 0 3 1.34314575 3 3v15c0 1.6568542-1.3431458 3-3 3h-12c-1.65685425 0-3-1.3431458-3-3v-15c0-1.65685425 1.34314575-3 3-3zm6 19.5c3.3137085 0 6-2.6862915 6-6s-2.6862915-6-6-6-6 2.6862915-6 6 2.6862915 6 6 6zm-5-14.5c.55228475 0 1-.44771525 1-1s-.44771525-1-1-1-1 .44771525-1 1 .44771525 1 1 1zm3 0c.5522847 0 1-.44771525 1-1s-.4477153-1-1-1c-.55228475 0-1 .44771525-1 1s.44771525 1 1 1z" fill-rule="nonzero"/><path d="m12 19.5c2.209139 0 4-1.790861 4-4s-1.790861-4-4-4-4 1.790861-4 4 1.790861 4 4 4z" opacity=".3"/></g></g></svg>

<svg width="24px" height="24px" viewBox="0 0 24 24" version="1.1" xmlns="http://www.w3.org/2000/svg" xmlns:xlink="http://www.w3.org/1999/xlink">
    <title>Icon For Washer</title>
    <g stroke="none" stroke-width="1" fill="none" fill-rule="evenodd">
        <rect opacity="0" x="0" y="0" width="24" height="24"></rect>
        <path d="M6,4 C5.44771525,4 5,4.44771525 5,5 L5,8 L19,8 L19,5 C19,4.44771525 18.5522847,4 18,4 L6,4 Z M6,2 L18,2 C19.6568542,2 21,3.34314575 21,5 L21,20 C21,21.6568542 19.6568542,23 18,23 L6,23 C4.34314575,23 3,21.6568542 3,20 L3,5 C3,3.34314575 4.34314575,2 6,2 Z M12,21.5 C15.3137085,21.5 18,18.8137085 18,15.5 C18,12.1862915 15.3137085,9.5 12,9.5 C8.6862915,9.5 6,12.1862915 6,15.5 C6,18.8137085 8.6862915,21.5 12,21.5 Z M7,7 C7.55228475,7 8,6.55228475 8,6 C8,5.44771525 7.55228475,5 7,5 C6.44771525,5 6,5.44771525 6,6 C6,6.55228475 6.44771525,7 7,7 Z M10,7 C10.5522847,7 11,6.55228475 11,6 C11,5.44771525 10.5522847,5 10,5 C9.44771525,5 9,5.44771525 9,6 C9,6.55228475 9.44771525,7 10,7 Z" fill="#000000" fill-rule="nonzero"></path>
        <path d="M12,19.5 C14.209139,19.5 16,17.709139 16,15.5 C16,13.290861 14.209139,11.5 12,11.5 C9.790861,11.5 8,13.290861 8,15.5 C8,17.709139 9.790861,19.5 12,19.5 Z" fill="#000000" opacity="0.3"></path>
    </g>
</svg>
